X:1
T:The Servant of Rosemary Lane
M:3/4
L:1/4
K:G
 z2 D| G F G| B, C D| E cB/2-A/2| G- FF/2-G/2| A3/2 B/2 A| A d G| F3/2 G/2 E|\
 D2 D/2D/2| A A D| A3/4- B/4 cB/2-A/2| G c B| A3/4- F/4- D D| G B A|\
 G E C| D E F| G z2|
